X: 31306
T: Paddy Kelly's
R: reel
M: 4/4
K: Gmajor
~G2dG (3BAG dG|~G2dG GdDE|~=F2cF AFcF|~=F2cF FECD|
~G2dG (3BAG dG|~G2dG G=FDE|=FG (3ABc =fefd|1 cAFA GDEF:|2 cAFA G2Bd||
|:(3gbg dg Bgdg|~g2bg afdg|~=f2cf Afcf|~=f2af gfdg|
~g2dg Bgdg|~g2bg afdg|~=f2af gfdc|1 (3Bcd AF G2Bd:|2 (3Bcd AF GDEF||
|:~G2Bd cABG|DGBd gdBG|~=F2CF dFcF|~=F2AF CFAF|
GABd cABG|~G2DG GABc|de=fd ~g2 (3fed|1 cAFA GDEF:|2 cAFA G2 (3ABc||
|:dg~g2 bg~g2|dg~g2 dcBd|c=f~f2 afgf|d=f~f2 dcAc|
dg~g2 bg~g2|dg~g2 dcBc|de=fd ~g2 (3fed|1 cAFA G2 (3ABc:|2 cAFA GDEF||

